X: 2
T: The Green Fields Of Glentown
R: reel
M: 4/4
L: 1/8
K: Ador
A z EA cAEA|G2DG B,DG,B,|A,A~A2 BAGE|edBA aged|bg~g2 aged|BG~G2 EDB,G,|A,E~E2 (DE2)F|GEDB, A,B,CD|.


Tune 671	Setting 21456

